Origami/32x32/apps/trillian.svg

<svg width="32" height="32" version="1" xmlns="http://www.w3.org/2000/svg">
 <path d="m12 3.000001c-5.4754692 0-10 4.5245309-10 10 0 4.520141 3.1404713 8.233707 7.2968747 9.447266 0.7381573 4.774553 4.7392083 8.552733 9.7031253 8.552733 5.474805 0 9.998904-4.523471 9.999999-9.998046v-2e-3c2.8e-5 -0.393279-0.07102-0.781781-0.117188-1.171875 0.03327-0.27219 0.116087-0.537651 0.117188-0.8125a4.0003999 4.0003999 0 0 0 0 -0.01758c-2e-3 -3.109342-2.15452-5.721465-5.054688-6.59375-0.646727-0.371918-1.299196-0.7386-2.007812-0.957031 0.0097-0.145462 0.06191-0.285616 0.0625-0.431641a4.0003999 4.0003999 0 0 0 0 -0.01758c-0.002021-3.1092906-2.15452-5.7214146-5.054687-6.5936992-1.509632-0.8681541-3.192038-1.4022568-4.941406-1.4042968a4.0003999 4.0003999 0 0 0 -0.0039 0z" style="opacity:.2"/>
 <path d="m12 2c-5.4754692 0-10 4.5245309-10 10 0 4.520141 3.1404713 8.233707 7.2968747 9.447266 0.7381573 4.774553 4.7392083 8.552733 9.7031253 8.552733 5.474805 0 9.998904-4.523471 9.999999-9.998046v-0.001953c2.8e-5 -0.393279-0.07102-0.781781-0.117188-1.171875 0.03327-0.27219 0.116087-0.537651 0.117188-0.8125a4.0003999 4.0003999 0 0 0 0 -0.01758c-2e-3 -3.109342-2.15452-5.721465-5.054688-6.59375-0.646727-0.371918-1.299196-0.7386-2.007812-0.957031 0.0097-0.145462 0.06191-0.285616 0.0625-0.431641a4.0003999 4.0003999 0 0 0 0 -0.01758c-0.002021-3.1093376-2.15452-5.7214615-5.054687-6.5937462-1.509632-0.8681541-3.192038-1.4022567-4.941406-1.4042968a4.0003999 4.0003999 0 0 0 -0.0039 0z" style="fill:#a32b58"/>
 <path d="M 12,6.9999999 A 5.9999999,5.9999999 0 0 0 5.9999998,13 5.9999999,5.9999999 0 0 0 12,19 5.9999999,5.9999999 0 0 0 18,13 5.9999999,5.9999999 0 0 0 12,6.9999999 Z m 0.5,0.9999999 A 4.4999999,4.4999999 0 0 1 17,12.5 4.4999999,4.4999999 0 0 1 12.5,17 4.4999999,4.4999999 0 0 1 7.9999997,12.5 4.4999999,4.4999999 0 0 1 12.5,7.9999998 Z" style="opacity:.2"/>
 <path d="m19 15.000001a5.9999999 5.9999999 0 0 0 -6 6 5.9999999 5.9999999 0 0 0 6 5.999999 5.9999999 5.9999999 0 0 0 5.999999 -5.999999 5.9999999 5.9999999 0 0 0 -5.999999 -6zm0.5 1a4.4999999 4.4999999 0 0 1 4.499999 4.5 4.4999999 4.4999999 0 0 1 -4.499999 4.5 4.4999999 4.4999999 0 0 1 -4.5 -4.5 4.4999999 4.4999999 0 0 1 4.5 -4.5z" style="opacity:.2"/>
 <path d="m 19,14 a 5.9999999,5.9999999 0 0 0 -6,6 5.9999999,5.9999999 0 0 0 6,5.999999 A 5.9999999,5.9999999 0 0 0 24.999999,20 5.9999999,5.9999999 0 0 0 19,14 Z m 0.5,1 A 4.4999999,4.4999999 0 0 1 23.999999,19.5 4.4999999,4.4999999 0 0 1 19.5,24 4.4999999,4.4999999 0 0 1 15,19.5 4.4999999,4.4999999 0 0 1 19.5,15 Z" style="fill:#f3ab6f"/>
 <circle cx="22" cy="19" r="3" style="opacity:.2"/>
 <circle cx="22" cy="18" r="3" style="fill:#f7c39a"/>
 <path d="M 12,5.9999999 A 5.9999999,5.9999999 0 0 0 5.9999998,12 5.9999999,5.9999999 0 0 0 12,18 5.9999999,5.9999999 0 0 0 18,12 5.9999999,5.9999999 0 0 0 12,5.9999999 Z m 0.5,1 A 4.4999999,4.4999999 0 0 1 17,11.5 4.4999999,4.4999999 0 0 1 12.5,16 4.4999999,4.4999999 0 0 1 7.9999997,11.5 4.4999999,4.4999999 0 0 1 12.5,6.9999999 Z" style="fill:#f3ab6f"/>
 <circle cx="15" cy="11" r="3" style="opacity:.2"/>
 <circle cx="15" cy="10" r="3" style="fill:#f7c39a"/>
 <path d="m12 2c-5.4754692 0-10 4.5245309-10 10 0 0.182405 0.0133491 0.361349 0.0234375 0.541016 0.2460451-5.2654461 4.6560393-9.541016 9.9765625-9.541016a4.0003999 4.0003999 0 0 1 0.003906 0c1.749368 0.0020401 3.431774 0.5361428 4.941406 1.4042969 2.705273 0.8136662 4.736372 3.1476905 5.001954 5.9804691 0.017142-0.12325 0.05223-0.244294 0.052734-0.369141a4.0003999 4.0003999 0 0 0 0 -0.0175781c-0.002021-3.1093376-2.154521-5.7214653-5.054688-6.59375-1.509632-0.8681541-3.192038-1.4022568-4.941406-1.4042969a4.0003999 4.0003999 0 0 0 -0.003906 0zm9.953125 8.453125c0.015157 0.181848 0.046754 0.359264 0.046875 0.544922a4.0003999 4.0003999 0 0 1 0 0.017578c-5.9e-4 0.146025-0.0528 0.286179-0.0625 0.431641 0.708616 0.218431 1.361086 0.585113 2.007812 0.957031 2.721399 0.818516 4.760207 3.175521 5.00586 6.03125 0.02595-0.138628 0.048262-0.278519 0.048828-0.419922a4.0003999 4.0003999 0 0 0 0 -0.017578c-2e-3 -3.109342-2.15452-5.721465-5.054688-6.59375-0.64187-0.369125-1.289726-0.732179-1.992187-0.951172zm7.003906 8.939453c-0.026092 0.144545-0.056381 0.289617-0.074219 0.435547 0.029451 0.24884 0.0631 0.496896 0.087891 0.746094 0.011143-0.190633 0.029258-0.379108 0.029297-0.572266v-0.001953c1.4e-5 -0.20319-0.018272-0.405903-0.042969-0.607422z" style="fill:#ffffff;opacity:.1"/>
</svg>

<svg xmlns="http://www.w3.org/2000/svg" width="32" height="32" version="1">
 <path style="opacity:0.2" d="m 12,3.000001 c -5.4754692,0 -10,4.5245309 -10,10 0,4.520141 3.1404713,8.233707 7.2968747,9.447266 C 10.035032,27.22182 14.036083,31 19,31 c 5.474805,0 9.998904,-4.523471 9.999999,-9.998046 v -0.002 c 2.8e-5,-0.393279 -0.07102,-0.781781 -0.117188,-1.171875 0.03327,-0.27219 0.116087,-0.537651 0.117188,-0.8125 a 4.0003999,4.0003999 0 0 0 0,-0.01758 c -0.002,-3.109342 -2.15452,-5.721465 -5.054688,-6.59375 -0.646727,-0.371918 -1.299196,-0.7386 -2.007812,-0.957031 0.0097,-0.145462 0.06191,-0.285616 0.0625,-0.431641 a 4.0003999,4.0003999 0 0 0 0,-0.01758 C 21.997978,7.8887064 19.845479,5.2765824 16.945312,4.4042978 15.43568,3.5361437 13.753274,3.002041 12.003906,3.000001 a 4.0003999,4.0003999 0 0 0 -0.0039,0 z"/>
 <path style="fill:#a32b58" d="M 12,2 C 6.5245308,2 2,6.5245309 2,12 2,16.520141 5.1404713,20.233707 9.2968747,21.447266 10.035032,26.221819 14.036083,29.999999 19,29.999999 c 5.474805,0 9.998904,-4.523471 9.999999,-9.998046 V 20 c 2.8e-5,-0.393279 -0.07102,-0.781781 -0.117188,-1.171875 0.03327,-0.27219 0.116087,-0.537651 0.117188,-0.8125 a 4.0003999,4.0003999 0 0 0 0,-0.01758 c -0.002,-3.109342 -2.15452,-5.721465 -5.054688,-6.59375 -0.646727,-0.371918 -1.299196,-0.7386 -2.007812,-0.957031 0.0097,-0.145462 0.06191,-0.285616 0.0625,-0.431641 a 4.0003999,4.0003999 0 0 0 0,-0.01758 C 21.997978,6.8887054 19.845479,4.2765815 16.945312,3.4042968 15.43568,2.5361427 13.753274,2.0020401 12.003906,2 a 4.0003999,4.0003999 0 0 0 -0.0039,0 z"/>
 <path style="opacity:0.2" d="M 12,6.9999999 A 5.9999999,5.9999999 0 0 0 5.9999998,13 5.9999999,5.9999999 0 0 0 12,19 5.9999999,5.9999999 0 0 0 18,13 5.9999999,5.9999999 0 0 0 12,6.9999999 Z m 0.5,0.9999999 A 4.4999999,4.4999999 0 0 1 17,12.5 4.4999999,4.4999999 0 0 1 12.5,17 4.4999999,4.4999999 0 0 1 7.9999997,12.5 4.4999999,4.4999999 0 0 1 12.5,7.9999998 Z"/>
 <path style="opacity:0.2" d="m 19,15.000001 a 5.9999999,5.9999999 0 0 0 -6,6 A 5.9999999,5.9999999 0 0 0 19,27 5.9999999,5.9999999 0 0 0 24.999999,21.000001 5.9999999,5.9999999 0 0 0 19,15.000001 Z m 0.5,1 a 4.4999999,4.4999999 0 0 1 4.499999,4.5 4.4999999,4.4999999 0 0 1 -4.499999,4.5 4.4999999,4.4999999 0 0 1 -4.5,-4.5 4.4999999,4.4999999 0 0 1 4.5,-4.5 z"/>
 <path style="fill:#f3ab6f" d="m 19,14 a 5.9999999,5.9999999 0 0 0 -6,6 5.9999999,5.9999999 0 0 0 6,5.999999 A 5.9999999,5.9999999 0 0 0 24.999999,20 5.9999999,5.9999999 0 0 0 19,14 Z m 0.5,1 A 4.4999999,4.4999999 0 0 1 23.999999,19.5 4.4999999,4.4999999 0 0 1 19.5,24 4.4999999,4.4999999 0 0 1 15,19.5 4.4999999,4.4999999 0 0 1 19.5,15 Z"/>
 <circle style="opacity:0.2" cx="22" cy="19" r="3"/>
 <circle style="fill:#f7c39a" cx="22" cy="18" r="3"/>
 <path style="fill:#f3ab6f" d="M 12,5.9999999 A 5.9999999,5.9999999 0 0 0 5.9999998,12 5.9999999,5.9999999 0 0 0 12,18 5.9999999,5.9999999 0 0 0 18,12 5.9999999,5.9999999 0 0 0 12,5.9999999 Z m 0.5,1 A 4.4999999,4.4999999 0 0 1 17,11.5 4.4999999,4.4999999 0 0 1 12.5,16 4.4999999,4.4999999 0 0 1 7.9999997,11.5 4.4999999,4.4999999 0 0 1 12.5,6.9999999 Z"/>
 <circle style="opacity:0.2" cx="15" cy="11" r="3"/>
 <circle style="fill:#f7c39a" cx="15" cy="10" r="3"/>
 <path style="opacity:0.1;fill:#ffffff" d="M 12 2 C 6.5245308 2 2 6.5245309 2 12 C 2 12.182405 2.0133491 12.361349 2.0234375 12.541016 C 2.2694826 7.2755699 6.6794768 3 12 3 A 4.0003999 4.0003999 0 0 1 12.003906 3 C 13.753274 3.0020401 15.43568 3.5361428 16.945312 4.4042969 C 19.650585 5.2179631 21.681684 7.5519874 21.947266 10.384766 C 21.964408 10.261516 21.999496 10.140472 22 10.015625 A 4.0003999 4.0003999 0 0 0 22 9.9980469 C 21.997979 6.8887093 19.845479 4.2765816 16.945312 3.4042969 C 15.43568 2.5361428 13.753274 2.0020401 12.003906 2 A 4.0003999 4.0003999 0 0 0 12 2 z M 21.953125 10.453125 C 21.968282 10.634973 21.999879 10.812389 22 10.998047 A 4.0003999 4.0003999 0 0 1 22 11.015625 C 21.99941 11.16165 21.9472 11.301804 21.9375 11.447266 C 22.646116 11.665697 23.298586 12.032379 23.945312 12.404297 C 26.666711 13.222813 28.705519 15.579818 28.951172 18.435547 C 28.977122 18.296919 28.999434 18.157028 29 18.015625 A 4.0003999 4.0003999 0 0 0 29 17.998047 C 28.998 14.888705 26.84548 12.276582 23.945312 11.404297 C 23.303442 11.035172 22.655586 10.672118 21.953125 10.453125 z M 28.957031 19.392578 C 28.930939 19.537123 28.90065 19.682195 28.882812 19.828125 C 28.912263 20.076965 28.945912 20.325021 28.970703 20.574219 C 28.981846 20.383586 28.999961 20.195111 29 20.001953 L 29 20 C 29.000014 19.79681 28.981728 19.594097 28.957031 19.392578 z"/>
</svg>
